X: 9280
T: Dance Of Ruairí Pip
R: jig
M: 6/8
K: Bminor
|:EFA FAB|ABc f2 c|BAB cBA|DFB F3|
DFA FAB|ABc e2 c|BAB e BA|cBA F3:|
|:c2 ec cBA|DFB DFB|E3 BcB|E3 cdc:|cAB BAc
|:FcF DcF|EcF DFB|FcF DcF|BAc BAE:|

